report_00007_2020-12-11T15:55:29.892Z/uses-http2/comparison/line/2_vs_3.svg

<svg width="640" height="500" xmlns="http://www.w3.org/2000/svg" xmlns:xlink="http://www.w3.org/1999/xlink"><path fill="#fff" d="M0 0h640v500H0z"/><defs><path id="d" stroke-width=".222" stroke="currentColor" d="M-1-1h2v2h-2z"/><path id="b" stroke-width=".222" stroke="currentColor" d="M0-1.33l-1.33 2h2.66z"/><path id="f" stroke-width=".222" stroke="currentColor" d="M0 1.33L1.265.411.782-1.067l-1.564-.009-.483 1.487z"/><use xlink:href="#b" id="c" stroke="currentColor" transform="rotate(180)"/><use xlink:href="#d" id="e" stroke="currentColor" transform="rotate(45)"/><circle id="a" stroke-width=".222" stroke="currentColor" cx="0" cy="0" r="1"/></defs><g fill="none" color="#000" stroke="currentColor"><path stroke="#000" d="M53.9 387.2h9m552.1 0h-9"/><text transform="translate(45.6 391.1)" stroke="none" fill="#000" font-family="Arial" font-size="12" text-anchor="end"><tspan>100</tspan></text></g><g fill="none" color="#000" stroke="currentColor"><path stroke="#000" d="M53.9 315.1h9m552.1 0h-9"/><text transform="translate(45.6 319)" stroke="none" fill="#000" font-family="Arial" font-size="12" text-anchor="end"><tspan>200</tspan></text></g><g fill="none" color="#000" stroke="currentColor"><path stroke="#000" d="M53.9 242.9h9m552.1 0h-9"/><text transform="translate(45.6 246.8)" stroke="none" fill="#000" font-family="Arial" font-size="12" text-anchor="end"><tspan>300</tspan></text></g><g fill="none" color="#000" stroke="currentColor"><path stroke="#000" d="M53.9 170.7h9m552.1 0h-9"/><text transform="translate(45.6 174.6)" stroke="none" fill="#000" font-family="Arial" font-size="12" text-anchor="end"><tspan>400</tspan></text></g><g fill="none" color="#000" stroke="currentColor"><path stroke="#000" d="M53.9 98.5h9m552.1 0h-9"/><text transform="translate(45.6 102.4)" stroke="none" fill="#000" font-family="Arial" font-size="12" text-anchor="end"><tspan>500</tspan></text></g><g fill="none" color="#000" stroke="currentColor"><path stroke="#000" d="M53.9 26.3h9m552.1 0h-9"/><text transform="translate(45.6 30.2)" stroke="none" fill="#000" font-family="Arial" font-size="12" text-anchor="end"><tspan>600</tspan></text></g><g fill="none" color="#000" stroke="currentColor"><path stroke="#000" d="M53.9 446v-9m0-418.9v9"/><text transform="translate(53.9 467.9)" stroke="none" fill="#000" font-family="Arial" font-size="12" text-anchor="middle"><tspan>0</tspan></text></g><g fill="none" color="#000" stroke="currentColor"><path stroke="#000" d="M110.6 446v-9m0-418.9v9"/><text transform="translate(110.6 467.9)" stroke="none" fill="#000" font-family="Arial" font-size="12" text-anchor="middle"><tspan>10</tspan></text></g><g fill="none" color="#000" stroke="currentColor"><path stroke="#000" d="M167.3 446v-9m0-418.9v9"/><text transform="translate(167.3 467.9)" stroke="none" fill="#000" font-family="Arial" font-size="12" text-anchor="middle"><tspan>20</tspan></text></g><g fill="none" color="#000" stroke="currentColor"><path stroke="#000" d="M223.9 446v-9m0-418.9v9"/><text transform="translate(223.9 467.9)" stroke="none" fill="#000" font-family="Arial" font-size="12" text-anchor="middle"><tspan>30</tspan></text></g><g fill="none" color="#000" stroke="currentColor"><path stroke="#000" d="M280.6 446v-9m0-418.9v9"/><text transform="translate(280.6 467.9)" stroke="none" fill="#000" font-family="Arial" font-size="12" text-anchor="middle"><tspan>40</tspan></text></g><g fill="none" color="#000" stroke="currentColor"><path stroke="#000" d="M337.3 446v-9m0-418.9v9"/><text transform="translate(337.3 467.9)" stroke="none" fill="#000" font-family="Arial" font-size="12" text-anchor="middle"><tspan>50</tspan></text></g><g fill="none" color="#000" stroke="currentColor"><path stroke="#000" d="M394 446v-9m0-418.9v9"/><text transform="translate(394 467.9)" stroke="none" fill="#000" font-family="Arial" font-size="12" text-anchor="middle"><tspan>60</tspan></text></g><g fill="none" color="#000" stroke="currentColor"><path stroke="#000" d="M450.6 446v-9m0-418.9v9"/><text transform="translate(450.6 467.9)" stroke="none" fill="#000" font-family="Arial" font-size="12" text-anchor="middle"><tspan>70</tspan></text></g><g fill="none" color="#000" stroke="currentColor"><path stroke="#000" d="M507.3 446v-9m0-418.9v9"/><text transform="translate(507.3 467.9)" stroke="none" fill="#000" font-family="Arial" font-size="12" text-anchor="middle"><tspan>80</tspan></text></g><g fill="none" color="#000" stroke="currentColor"><path stroke="#000" d="M564 446v-9m0-418.9v9"/><text transform="translate(564 467.9)" stroke="none" fill="#000" font-family="Arial" font-size="12" text-anchor="middle"><tspan>90</tspan></text></g><path stroke="#000" d="M53.9 18.1V446H615V18.1H53.9z" fill="none" color="#000"/><text transform="translate(275.6 485.9)" stroke="none" fill="#000" font-family="Arial" font-size="12" text-anchor="end" color="#000"><tspan>pages+cached</tspan></text><path stroke="#9400D3" d="M283.9 482h42.2M53.9 26.3l5.7 303.2 5.6 108.3 5.7-108.3 5.7 7.2 5.6-7.2h5.7l5.7-108.3 5.6 108.3 5.7-108.3 5.7 108.3h5.6l5.7 7.2 5.7-7.2H155.9l5.7-108.3h5.7l5.6 108.3 5.7 7.2h11.3l5.7-7.2h5.7l5.6 7.2 5.7-7.2h5.7l5.6 7.2 5.7-7.2 5.7 7.2 5.6-7.2 5.7 7.2 5.7-7.2 5.6 7.2 5.7-7.2h5.7l5.6 7.2h11.4l5.6-7.2 5.7-108.3 5.7 115.5 5.6-7.2h5.7l5.7-101.1 5.6 108.3 5.7-7.2H343l5.6 7.2h5.7l5.7-7.2h5.6l5.7-108.3 5.7 108.3 5.6 7.2 5.7-7.2h5.7l5.6 7.2 5.7-7.2 5.7 7.2 5.6-7.2 5.7 7.2h11.3l5.7-108.3 5.7 101.1 5.6 7.2h17l5.7-7.2 5.7 7.2h5.6l5.7-7.2 5.7 7.2h5.6l5.7-7.2 5.7 7.2 5.6-7.2 5.7 7.2 5.7-108.3 5.7 108.3 5.6-7.2 5.7 7.2h5.7l5.6-7.2 5.7 7.2 5.7-115.5 5.6 108.3h5.7l5.7 7.2h17l5.6-115.5 5.7 108.3" fill="none" color="#000"/><text transform="translate(550.2 485.9)" stroke="none" fill="#000" font-family="Arial" font-size="12" text-anchor="end" color="#000"><tspan>pages+cached+nointeractive</tspan></text><path stroke="#009E73" d="M558.5 482h42.2M53.9 329.5l5.7 7.2h22.6l5.7-7.2 5.7 7.2 5.6-108.3 5.7 101.1 5.7 7.2 5.6-7.2h11.4l5.6 7.2H155.9l5.7-7.2 5.7 7.2h17l5.6-7.2h5.7l5.7 7.2 5.6-115.5 5.7 115.5 5.7-7.2 5.6-101.1h5.7l5.7 108.3h5.6l5.7-7.2 5.7 7.2 5.6-108.3h17l5.7 108.3 5.7-108.3 5.6 108.3 5.7-108.3 5.7 101.1h5.6l5.7 7.2 5.7-108.3h17l5.7 108.3 5.6-7.2h5.7l5.7-101.1 5.6 101.1h5.7l5.7-101.1 5.6 108.3 5.7-7.2 5.7-101.1 5.6-7.2 5.7 7.2 5.7 108.3h11.3l5.7-108.3 5.6 108.3 5.7-108.3h11.3l5.7-115.5 5.7 223.8h5.6l5.7-108.3h5.7l5.6 108.3 5.7-108.3h5.7l5.6-7.2 5.7 7.2 5.7 108.3 5.6-108.3 5.7 101.1 5.7 21.7 5.7-122.8h5.6l5.7 101.1 5.7-209.3 5.6 216.5h11.4l5.6-7.2 5.7-101.1 5.7 108.3 5.6-108.3 5.7 108.3h11.3l5.7-108.3" fill="none" color="#000"/><g fill="none" color="#000" stroke="currentColor"><path stroke="#000" d="M53.9 18.1V446H615V18.1H53.9z"/></g></svg>

<?xml version="1.0" encoding="utf-8"  standalone="no"?>
<svg 
 width="640" height="500"
 viewBox="0 0 640 500"
 xmlns="http://www.w3.org/2000/svg"
 xmlns:xlink="http://www.w3.org/1999/xlink"
>

<title>Gnuplot</title>
<desc>Produced by GNUPLOT 5.4 patchlevel 0 </desc>

<g id="gnuplot_canvas">

<rect x="0" y="0" width="640" height="500" fill="#ffffff"/>
<defs>

	<circle id='gpDot' r='0.5' stroke-width='0.5' stroke='currentColor'/>
	<path id='gpPt0' stroke-width='0.222' stroke='currentColor' d='M-1,0 h2 M0,-1 v2'/>
	<path id='gpPt1' stroke-width='0.222' stroke='currentColor' d='M-1,-1 L1,1 M1,-1 L-1,1'/>
	<path id='gpPt2' stroke-width='0.222' stroke='currentColor' d='M-1,0 L1,0 M0,-1 L0,1 M-1,-1 L1,1 M-1,1 L1,-1'/>
	<rect id='gpPt3' stroke-width='0.222' stroke='currentColor' x='-1' y='-1' width='2' height='2'/>
	<rect id='gpPt4' stroke-width='0.222' stroke='currentColor' fill='currentColor' x='-1' y='-1' width='2' height='2'/>
	<circle id='gpPt5' stroke-width='0.222' stroke='currentColor' cx='0' cy='0' r='1'/>
	<use xlink:href='#gpPt5' id='gpPt6' fill='currentColor' stroke='none'/>
	<path id='gpPt7' stroke-width='0.222' stroke='currentColor' d='M0,-1.33 L-1.33,0.67 L1.33,0.67 z'/>
	<use xlink:href='#gpPt7' id='gpPt8' fill='currentColor' stroke='none'/>
	<use xlink:href='#gpPt7' id='gpPt9' stroke='currentColor' transform='rotate(180)'/>
	<use xlink:href='#gpPt9' id='gpPt10' fill='currentColor' stroke='none'/>
	<use xlink:href='#gpPt3' id='gpPt11' stroke='currentColor' transform='rotate(45)'/>
	<use xlink:href='#gpPt11' id='gpPt12' fill='currentColor' stroke='none'/>
	<path id='gpPt13' stroke-width='0.222' stroke='currentColor' d='M0,1.330 L1.265,0.411 L0.782,-1.067 L-0.782,-1.076 L-1.265,0.411 z'/>
	<use xlink:href='#gpPt13' id='gpPt14' fill='currentColor' stroke='none'/>
	<filter id='textbox' filterUnits='objectBoundingBox' x='0' y='0' height='1' width='1'>
	  <feFlood flood-color='#FFFFFF' flood-opacity='1' result='bgnd'/>
	  <feComposite in='SourceGraphic' in2='bgnd' operator='atop'/>
	</filter>
	<filter id='greybox' filterUnits='objectBoundingBox' x='0' y='0' height='1' width='1'>
	  <feFlood flood-color='lightgrey' flood-opacity='1' result='grey'/>
	  <feComposite in='SourceGraphic' in2='grey' operator='atop'/>
	</filter>
</defs>
<g fill="none" color="#FFFFFF" stroke="black" stroke-width="1.00" stroke-linecap="butt" stroke-linejoin="miter">
</g>
<g fill="none" color="black" stroke="currentColor" stroke-width="1.00" stroke-linecap="butt" stroke-linejoin="miter">
	<path stroke='black'  d='M53.9,387.2 L62.9,387.2 M615.0,387.2 L606.0,387.2  '/>	<g transform="translate(45.6,391.1)" stroke="none" fill="black" font-family="Arial" font-size="12.00"  text-anchor="end">
		<text><tspan font-family="Arial" > 100</tspan></text>
	</g>
</g>
<g fill="none" color="black" stroke="currentColor" stroke-width="1.00" stroke-linecap="butt" stroke-linejoin="miter">
	<path stroke='black'  d='M53.9,315.1 L62.9,315.1 M615.0,315.1 L606.0,315.1  '/>	<g transform="translate(45.6,319.0)" stroke="none" fill="black" font-family="Arial" font-size="12.00"  text-anchor="end">
		<text><tspan font-family="Arial" > 200</tspan></text>
	</g>
</g>
<g fill="none" color="black" stroke="currentColor" stroke-width="1.00" stroke-linecap="butt" stroke-linejoin="miter">
	<path stroke='black'  d='M53.9,242.9 L62.9,242.9 M615.0,242.9 L606.0,242.9  '/>	<g transform="translate(45.6,246.8)" stroke="none" fill="black" font-family="Arial" font-size="12.00"  text-anchor="end">
		<text><tspan font-family="Arial" > 300</tspan></text>
	</g>
</g>
<g fill="none" color="black" stroke="currentColor" stroke-width="1.00" stroke-linecap="butt" stroke-linejoin="miter">
	<path stroke='black'  d='M53.9,170.7 L62.9,170.7 M615.0,170.7 L606.0,170.7  '/>	<g transform="translate(45.6,174.6)" stroke="none" fill="black" font-family="Arial" font-size="12.00"  text-anchor="end">
		<text><tspan font-family="Arial" > 400</tspan></text>
	</g>
</g>
<g fill="none" color="black" stroke="currentColor" stroke-width="1.00" stroke-linecap="butt" stroke-linejoin="miter">
	<path stroke='black'  d='M53.9,98.5 L62.9,98.5 M615.0,98.5 L606.0,98.5  '/>	<g transform="translate(45.6,102.4)" stroke="none" fill="black" font-family="Arial" font-size="12.00"  text-anchor="end">
		<text><tspan font-family="Arial" > 500</tspan></text>
	</g>
</g>
<g fill="none" color="black" stroke="currentColor" stroke-width="1.00" stroke-linecap="butt" stroke-linejoin="miter">
	<path stroke='black'  d='M53.9,26.3 L62.9,26.3 M615.0,26.3 L606.0,26.3  '/>	<g transform="translate(45.6,30.2)" stroke="none" fill="black" font-family="Arial" font-size="12.00"  text-anchor="end">
		<text><tspan font-family="Arial" > 600</tspan></text>
	</g>
</g>
<g fill="none" color="black" stroke="currentColor" stroke-width="1.00" stroke-linecap="butt" stroke-linejoin="miter">
	<path stroke='black'  d='M53.9,446.0 L53.9,437.0 M53.9,18.1 L53.9,27.1  '/>	<g transform="translate(53.9,467.9)" stroke="none" fill="black" font-family="Arial" font-size="12.00"  text-anchor="middle">
		<text><tspan font-family="Arial" > 0</tspan></text>
	</g>
</g>
<g fill="none" color="black" stroke="currentColor" stroke-width="1.00" stroke-linecap="butt" stroke-linejoin="miter">
	<path stroke='black'  d='M110.6,446.0 L110.6,437.0 M110.6,18.1 L110.6,27.1  '/>	<g transform="translate(110.6,467.9)" stroke="none" fill="black" font-family="Arial" font-size="12.00"  text-anchor="middle">
		<text><tspan font-family="Arial" > 10</tspan></text>
	</g>
</g>
<g fill="none" color="black" stroke="currentColor" stroke-width="1.00" stroke-linecap="butt" stroke-linejoin="miter">
	<path stroke='black'  d='M167.3,446.0 L167.3,437.0 M167.3,18.1 L167.3,27.1  '/>	<g transform="translate(167.3,467.9)" stroke="none" fill="black" font-family="Arial" font-size="12.00"  text-anchor="middle">
		<text><tspan font-family="Arial" > 20</tspan></text>
	</g>
</g>
<g fill="none" color="black" stroke="currentColor" stroke-width="1.00" stroke-linecap="butt" stroke-linejoin="miter">
	<path stroke='black'  d='M223.9,446.0 L223.9,437.0 M223.9,18.1 L223.9,27.1  '/>	<g transform="translate(223.9,467.9)" stroke="none" fill="black" font-family="Arial" font-size="12.00"  text-anchor="middle">
		<text><tspan font-family="Arial" > 30</tspan></text>
	</g>
</g>
<g fill="none" color="black" stroke="currentColor" stroke-width="1.00" stroke-linecap="butt" stroke-linejoin="miter">
	<path stroke='black'  d='M280.6,446.0 L280.6,437.0 M280.6,18.1 L280.6,27.1  '/>	<g transform="translate(280.6,467.9)" stroke="none" fill="black" font-family="Arial" font-size="12.00"  text-anchor="middle">
		<text><tspan font-family="Arial" > 40</tspan></text>
	</g>
</g>
<g fill="none" color="black" stroke="currentColor" stroke-width="1.00" stroke-linecap="butt" stroke-linejoin="miter">
	<path stroke='black'  d='M337.3,446.0 L337.3,437.0 M337.3,18.1 L337.3,27.1  '/>	<g transform="translate(337.3,467.9)" stroke="none" fill="black" font-family="Arial" font-size="12.00"  text-anchor="middle">
		<text><tspan font-family="Arial" > 50</tspan></text>
	</g>
</g>
<g fill="none" color="black" stroke="currentColor" stroke-width="1.00" stroke-linecap="butt" stroke-linejoin="miter">
	<path stroke='black'  d='M394.0,446.0 L394.0,437.0 M394.0,18.1 L394.0,27.1  '/>	<g transform="translate(394.0,467.9)" stroke="none" fill="black" font-family="Arial" font-size="12.00"  text-anchor="middle">
		<text><tspan font-family="Arial" > 60</tspan></text>
	</g>
</g>
<g fill="none" color="black" stroke="currentColor" stroke-width="1.00" stroke-linecap="butt" stroke-linejoin="miter">
	<path stroke='black'  d='M450.6,446.0 L450.6,437.0 M450.6,18.1 L450.6,27.1  '/>	<g transform="translate(450.6,467.9)" stroke="none" fill="black" font-family="Arial" font-size="12.00"  text-anchor="middle">
		<text><tspan font-family="Arial" > 70</tspan></text>
	</g>
</g>
<g fill="none" color="black" stroke="currentColor" stroke-width="1.00" stroke-linecap="butt" stroke-linejoin="miter">
	<path stroke='black'  d='M507.3,446.0 L507.3,437.0 M507.3,18.1 L507.3,27.1  '/>	<g transform="translate(507.3,467.9)" stroke="none" fill="black" font-family="Arial" font-size="12.00"  text-anchor="middle">
		<text><tspan font-family="Arial" > 80</tspan></text>
	</g>
</g>
<g fill="none" color="black" stroke="currentColor" stroke-width="1.00" stroke-linecap="butt" stroke-linejoin="miter">
	<path stroke='black'  d='M564.0,446.0 L564.0,437.0 M564.0,18.1 L564.0,27.1  '/>	<g transform="translate(564.0,467.9)" stroke="none" fill="black" font-family="Arial" font-size="12.00"  text-anchor="middle">
		<text><tspan font-family="Arial" > 90</tspan></text>
	</g>
</g>
<g fill="none" color="black" stroke="currentColor" stroke-width="1.00" stroke-linecap="butt" stroke-linejoin="miter">
</g>
<g fill="none" color="black" stroke="currentColor" stroke-width="1.00" stroke-linecap="butt" stroke-linejoin="miter">
	<path stroke='black'  d='M53.9,18.1 L53.9,446.0 L615.0,446.0 L615.0,18.1 L53.9,18.1 Z  '/></g>
<g fill="none" color="black" stroke="currentColor" stroke-width="1.00" stroke-linecap="butt" stroke-linejoin="miter">
</g>
	<g id="gnuplot_plot_1" ><title>pages+cached</title>
<g fill="none" color="black" stroke="currentColor" stroke-width="1.00" stroke-linecap="butt" stroke-linejoin="miter">
	<g transform="translate(275.6,485.9)" stroke="none" fill="black" font-family="Arial" font-size="12.00"  text-anchor="end">
		<text><tspan font-family="Arial" >pages+cached</tspan></text>
	</g>
</g>
<g fill="none" color="black" stroke="currentColor" stroke-width="1.00" stroke-linecap="butt" stroke-linejoin="miter">
	<path stroke='rgb(148,   0, 211)'  d='M283.9,482.0 L326.1,482.0 M53.9,26.3 L59.6,329.5 L65.2,437.8 L70.9,329.5 L76.6,336.7 L82.2,329.5
		L87.9,329.5 L93.6,221.2 L99.2,329.5 L104.9,221.2 L110.6,329.5 L116.2,329.5 L121.9,336.7 L127.6,329.5
		L133.2,329.5 L138.9,329.5 L144.6,329.5 L150.3,329.5 L155.9,329.5 L161.6,221.2 L167.3,221.2 L172.9,329.5
		L178.6,336.7 L184.3,336.7 L189.9,336.7 L195.6,329.5 L201.3,329.5 L206.9,336.7 L212.6,329.5 L218.3,329.5
		L223.9,336.7 L229.6,329.5 L235.3,336.7 L240.9,329.5 L246.6,336.7 L252.3,329.5 L257.9,336.7 L263.6,329.5
		L269.3,329.5 L274.9,336.7 L280.6,336.7 L286.3,336.7 L291.9,329.5 L297.6,221.2 L303.3,336.7 L308.9,329.5
		L314.6,329.5 L320.3,228.4 L325.9,336.7 L331.6,329.5 L337.3,329.5 L343.0,329.5 L348.6,336.7 L354.3,336.7
		L360.0,329.5 L365.6,329.5 L371.3,221.2 L377.0,329.5 L382.6,336.7 L388.3,329.5 L394.0,329.5 L399.6,336.7
		L405.3,329.5 L411.0,336.7 L416.6,329.5 L422.3,336.7 L428.0,336.7 L433.6,336.7 L439.3,228.4 L445.0,329.5
		L450.6,336.7 L456.3,336.7 L462.0,336.7 L467.6,336.7 L473.3,329.5 L479.0,336.7 L484.6,336.7 L490.3,329.5
		L496.0,336.7 L501.6,336.7 L507.3,329.5 L513.0,336.7 L518.6,329.5 L524.3,336.7 L530.0,228.4 L535.7,336.7
		L541.3,329.5 L547.0,336.7 L552.7,336.7 L558.3,329.5 L564.0,336.7 L569.7,221.2 L575.3,329.5 L581.0,329.5
		L586.7,336.7 L592.3,336.7 L598.0,336.7 L603.7,336.7 L609.3,221.2 L615.0,329.5  '/></g>
	</g>
	<g id="gnuplot_plot_2" ><title>pages+cached+nointeractive</title>
<g fill="none" color="black" stroke="currentColor" stroke-width="1.00" stroke-linecap="butt" stroke-linejoin="miter">
	<g transform="translate(550.2,485.9)" stroke="none" fill="black" font-family="Arial" font-size="12.00"  text-anchor="end">
		<text><tspan font-family="Arial" >pages+cached+nointeractive</tspan></text>
	</g>
</g>
<g fill="none" color="black" stroke="currentColor" stroke-width="1.00" stroke-linecap="butt" stroke-linejoin="miter">
	<path stroke='rgb(  0, 158, 115)'  d='M558.5,482.0 L600.7,482.0 M53.9,329.5 L59.6,336.7 L65.2,336.7 L70.9,336.7 L76.6,336.7 L82.2,336.7
		L87.9,329.5 L93.6,336.7 L99.2,228.4 L104.9,329.5 L110.6,336.7 L116.2,329.5 L121.9,329.5 L127.6,329.5
		L133.2,336.7 L138.9,336.7 L144.6,336.7 L150.3,336.7 L155.9,336.7 L161.6,329.5 L167.3,336.7 L172.9,336.7
		L178.6,336.7 L184.3,336.7 L189.9,329.5 L195.6,329.5 L201.3,336.7 L206.9,221.2 L212.6,336.7 L218.3,329.5
		L223.9,228.4 L229.6,228.4 L235.3,336.7 L240.9,336.7 L246.6,329.5 L252.3,336.7 L257.9,228.4 L263.6,228.4
		L269.3,228.4 L274.9,228.4 L280.6,336.7 L286.3,228.4 L291.9,336.7 L297.6,228.4 L303.3,329.5 L308.9,329.5
		L314.6,336.7 L320.3,228.4 L325.9,228.4 L331.6,228.4 L337.3,228.4 L343.0,336.7 L348.6,329.5 L354.3,329.5
		L360.0,228.4 L365.6,329.5 L371.3,329.5 L377.0,228.4 L382.6,336.7 L388.3,329.5 L394.0,228.4 L399.6,221.2
		L405.3,228.4 L411.0,336.7 L416.6,336.7 L422.3,336.7 L428.0,228.4 L433.6,336.7 L439.3,228.4 L445.0,228.4
		L450.6,228.4 L456.3,112.9 L462.0,336.7 L467.6,336.7 L473.3,228.4 L479.0,228.4 L484.6,336.7 L490.3,228.4
		L496.0,228.4 L501.6,221.2 L507.3,228.4 L513.0,336.7 L518.6,228.4 L524.3,329.5 L530.0,351.2 L535.7,228.4
		L541.3,228.4 L547.0,329.5 L552.7,120.2 L558.3,336.7 L564.0,336.7 L569.7,336.7 L575.3,329.5 L581.0,228.4
		L586.7,336.7 L592.3,228.4 L598.0,336.7 L603.7,336.7 L609.3,336.7 L615.0,228.4  '/></g>
	</g>
<g fill="none" color="#FFFFFF" stroke="rgb(  0, 158, 115)" stroke-width="2.00" stroke-linecap="butt" stroke-linejoin="miter">
</g>
<g fill="none" color="black" stroke="currentColor" stroke-width="2.00" stroke-linecap="butt" stroke-linejoin="miter">
</g>
<g fill="none" color="black" stroke="black" stroke-width="1.00" stroke-linecap="butt" stroke-linejoin="miter">
</g>
<g fill="none" color="black" stroke="currentColor" stroke-width="1.00" stroke-linecap="butt" stroke-linejoin="miter">
	<path stroke='black'  d='M53.9,18.1 L53.9,446.0 L615.0,446.0 L615.0,18.1 L53.9,18.1 Z  '/></g>
<g fill="none" color="black" stroke="currentColor" stroke-width="1.00" stroke-linecap="butt" stroke-linejoin="miter">
</g>
</g>
</svg>
